X:129
T:The Last One
M:C|
L:1/8
C:© Paul Gitlitz 2003
R:Bossa
B:Hunters and Gatherers
D:"To Have and To Hold" available @ www.glitchless.net
K:G
GBg|:"G6"f2de- eB2d-|d4 zGBg|f2d-de2Bc-|"D7"c4zceg|!
"D7"f3d e2c2|d3B c2A2|"G"B3G "D7"A3F|1"G"G4 zGBg:|2"G"G2Gd ed2B|!
|:"D7"[F3c3]c- cdc2|["G6"G3B3]B- BdB2|"D7"[F3c3]c e2dc|"G6"[G2B2]eg fedB|!
"D7"[F3c3]c- cdc2|"G"[G3B3]B- BdB2|"D7"(3D2F2A2 (3f2a2f2|"G"[G8B8]:|]
